build/img/sprites/cloud.svg

<svg width="24" height="24" viewBox="0 0 24 24" fill="none" xmlns="http://www.w3.org/2000/svg">
<path d="M23.2504 12C23.2551 13.7861 22.6757 15.5248 21.6004 16.9509C21.5412 17.0297 21.467 17.0961 21.3822 17.1462C21.2973 17.1964 21.2034 17.2293 21.1058 17.2431C21.0082 17.257 20.9089 17.2514 20.8134 17.2269C20.7179 17.2023 20.6283 17.1592 20.5495 17.1C20.4707 17.0408 20.4043 16.9666 20.3542 16.8818C20.304 16.7969 20.2711 16.703 20.2573 16.6054C20.2434 16.5078 20.249 16.4085 20.2735 16.313C20.2981 16.2175 20.3412 16.1279 20.4004 16.0491C21.2806 14.883 21.7547 13.4609 21.7504 12C21.7504 10.2098 21.0392 8.4929 19.7734 7.22703C18.5075 5.96115 16.7906 5.25 15.0004 5.25C13.2102 5.25 11.4933 5.96115 10.2274 7.22703C8.96156 8.4929 8.2504 10.2098 8.2504 12C8.2504 12.1989 8.17138 12.3897 8.03073 12.5303C7.89008 12.671 7.69931 12.75 7.5004 12.75C7.30149 12.75 7.11072 12.671 6.97007 12.5303C6.82942 12.3897 6.7504 12.1989 6.7504 12C6.75003 11.2431 6.85382 10.4898 7.05884 9.76125C6.95665 9.75 6.85353 9.75 6.7504 9.75C5.55693 9.75 4.41234 10.2241 3.56842 11.068C2.72451 11.9119 2.2504 13.0565 2.2504 14.25C2.2504 15.4435 2.72451 16.5881 3.56842 17.432C4.41234 18.2759 5.55693 18.75 6.7504 18.75H9.0004C9.19931 18.75 9.39008 18.829 9.53073 18.9697C9.67138 19.1103 9.7504 19.3011 9.7504 19.5C9.7504 19.6989 9.67138 19.8897 9.53073 20.0303C9.39008 20.171 9.19931 20.25 9.0004 20.25H6.7504C5.92557 20.2502 5.10955 20.0803 4.35332 19.751C3.59709 19.4216 2.91688 18.9399 2.35519 18.3359C1.7935 17.7318 1.36238 17.0185 1.08876 16.2403C0.815145 15.4622 0.704907 14.636 0.764932 13.8134C0.824958 12.9907 1.05396 12.1893 1.43763 11.4591C1.8213 10.7289 2.3514 10.0857 2.99483 9.56961C3.63825 9.05351 4.38118 8.67562 5.17721 8.45954C5.97323 8.24346 6.80527 8.19383 7.62134 8.31375C8.45234 6.65171 9.8201 5.31888 11.5031 4.53115C13.1861 3.74342 15.0857 3.54693 16.8943 3.9735C18.7029 4.40007 20.3145 5.42472 21.4681 6.88148C22.6217 8.33824 23.2497 10.1418 23.2504 12ZM16.7198 15.9694L15.0004 17.6897V12C15.0004 11.8011 14.9214 11.6103 14.7807 11.4697C14.6401 11.329 14.4493 11.25 14.2504 11.25C14.0515 11.25 13.8607 11.329 13.7201 11.4697C13.5794 11.6103 13.5004 11.8011 13.5004 12V17.6897L11.781 15.9694C11.6403 15.8286 11.4494 15.7496 11.2504 15.7496C11.0514 15.7496 10.8605 15.8286 10.7198 15.9694C10.579 16.1101 10.5 16.301 10.5 16.5C10.5 16.699 10.579 16.8899 10.7198 17.0306L13.7198 20.0306C13.7894 20.1004 13.8721 20.1557 13.9632 20.1934C14.0542 20.2312 14.1518 20.2506 14.2504 20.2506C14.349 20.2506 14.4466 20.2312 14.5376 20.1934C14.6287 20.1557 14.7114 20.1004 14.781 20.0306L17.781 17.0306C17.9218 16.8899 18.0008 16.699 18.0008 16.5C18.0008 16.301 17.9218 16.1101 17.781 15.9694C17.6403 15.8286 17.4494 15.7496 17.2504 15.7496C17.0514 15.7496 16.8605 15.8286 16.7198 15.9694Z" fill="currentColor"/>
</svg>

<svg width="24" height="24" viewBox="0 0 24 24" fill="none" xmlns="http://www.w3.org/2000/svg"><path d="M23.25 12a8.188 8.188 0 01-1.65 4.95.75.75 0 11-1.2-.9A6.688 6.688 0 0021.75 12a6.75 6.75 0 00-13.5 0 .75.75 0 11-1.5 0c0-.757.104-1.51.309-2.239-.102-.011-.205-.011-.309-.011a4.5 4.5 0 000 9H9a.75.75 0 110 1.5H6.75a6 6 0 11.871-11.936A8.25 8.25 0 0123.251 12zm-6.53 3.97L15 17.69V12a.75.75 0 10-1.5 0v5.69l-1.719-1.72a.75.75 0 10-1.061 1.06l3 3a.747.747 0 001.061 0l3-3a.75.75 0 10-1.061-1.06z" fill="currentColor"/></svg>
